X:1
T:Title
%%score ( 1 2 ) ( 3 4 )
L:1/8
Q:1/4=107
M:4/4
K:C
V:1 treble nm="Grand Piano, Staff 1"
V:2 treble 
V:3 bass nm="Choir Pad, Deventer, LM"
V:4 bass 
V:1
 [EG]2 [EG]2 [Ec]2 [EB]2 | [FA]2 [CG]2- [CG][B,F] [CE]2 | [DG]2 [Cc]2 [DA]2 [Dd]2 | %3
w: By~Berthold~Tours,~1872 * * *|||
 GA [DB]2 [DA]2 [DG]2 | [B,G]2 [CG]2 [Ec]2 [_EB]2 | [^FA]2 G-[DG] [^CA]2 [D=F]2 | %6
w: |||
 [DG]2 [CE]2 [CG]2 [CA]2 | [Fd]2 [FB]2- [FB][Ec] [Ec]2- | [Ec]6 z2 |] %9
w: |||
V:2
 x8 | x8 | x8 | E2 z2 z4 | x8 | z2 .E2 z4 | x8 | x8 | x8 |] %9
V:3
 C2 C2 [A,C]2 [G,C]2 | [F,C]2 [E,G,]2- [E,G,][D,G,] [C,G,]2 | z4 ^F,2 z2 | %3
 [C,G,]2 [D,G,]2 D,-[D,C] [G,B,]2 | G,F, [E,G,]2 A,G, [B,,^F,]2 | %5
 [_E,B,]2 [=E,B,]2 [A,,A,]2 [D,A,]2 | [B,,G,]2 [C,G,]2 CB,A,-[E,A,] | %7
 [D,A,]2 G,2- G,/ z/ [C,G,] [C,G,]2- | [C,G,]6 z2 |] %9
V:4
 x8 | x8 | [B,,G,]2 [A,,A,]2 D,C, [B,,G,]2 | z4 .^F,2 z2 | z4 A,,2 z2 | x8 | z4 E,2 .F,2 | x8 | %8
 x8 |] %9

